client/public/img/game/shared/trails/power_cell_trail.svg

<?xml version="1.0" encoding="UTF-8" standalone="no"?>
<svg
   width="501"
   height="41"
   viewBox="0 0 501 41"
   fill="none"
   version="1.1"
   id="svg10"
   xmlns="http://www.w3.org/2000/svg"
   xmlns:svg="http://www.w3.org/2000/svg">
  <path
     d="M0.486786 0.612305H480.487C491.532 0.612305 500.487 9.56661 500.487 20.6123V20.6123C500.487 31.658 491.532 40.6123 480.487 40.6123H0.486786V0.612305Z"
     fill="url(#paint0_linear_504_13)"
     id="path1" />
  <path
     d="M499.033 13.1123C499.971 15.4284 500.487 17.9601 500.487 20.6123C500.487 23.2646 499.971 25.7962 499.033 28.1123H0.486816V13.1123H499.033Z"
     fill="url(#paint1_linear_504_13)"
     id="path2" />
  <g
     style="mix-blend-mode:soft-light"
     id="g3">
    <path
       d="M0.486786 28.1123V13.1123H499.033C499.969 15.4229 500.484 17.9492 500.487 20.5947C500.484 23.2383 499.968 25.8037 499.033 28.1123H0.486786Z"
       fill="url(#paint2_linear_504_13)"
       id="path3" />
  </g>
  <defs
     id="defs10">
    <linearGradient
       id="paint0_linear_504_13"
       x1="500.487"
       y1="20.6123"
       x2="0.486786"
       y2="20.6123"
       gradientUnits="userSpaceOnUse">
      <stop
         stop-color="#0088FF"
         id="stop3" />
      <stop
         offset="0.53125"
         stop-color="#00AAFF"
         stop-opacity="0.5"
         id="stop4" />
      <stop
         offset="1"
         stop-color="#00FFFF"
         stop-opacity="0"
         id="stop5" />
    </linearGradient>
    <linearGradient
       id="paint1_linear_504_13"
       x1="500.487"
       y1="20.6118"
       x2="0.486813"
       y2="20.6116"
       gradientUnits="userSpaceOnUse">
      <stop
         stop-color="#FF7700"
         stop-opacity="0.6"
         id="stop6" />
      <stop
         offset="0.947917"
         stop-color="#FF7700"
         stop-opacity="0"
         id="stop7" />
    </linearGradient>
    <linearGradient
       id="paint2_linear_504_13"
       x1="250.487"
       y1="13.1123"
       x2="250.487"
       y2="28.1123"
       gradientUnits="userSpaceOnUse">
      <stop
         stop-color="#FFC999"
         stop-opacity="0"
         id="stop8" />
      <stop
         offset="0.5"
         stop-color="#FFC999"
         id="stop9" />
      <stop
         offset="1"
         stop-color="#FFC999"
         stop-opacity="0"
         id="stop10" />
    </linearGradient>
  </defs>
</svg>

<svg xmlns="http://www.w3.org/2000/svg" width="501" height="41" fill="none"><path fill="url(#a)" d="M.487.612h480c11.045 0 20 8.955 20 20s-8.955 20-20 20h-480z"/><path fill="url(#b)" d="M499.033 13.112a19.9 19.9 0 0 1 1.454 7.5c0 2.653-.516 5.184-1.454 7.5H.487v-15z"/><path fill="url(#c)" d="M.487 28.112v-15h498.546a19.95 19.95 0 0 1 1.454 7.483 20.2 20.2 0 0 1-1.454 7.517z" style="mix-blend-mode:soft-light"/><defs><linearGradient id="a" x1="500.487" x2=".487" y1="20.612" y2="20.612" gradientUnits="userSpaceOnUse"><stop stop-color="#08F"/><stop offset=".531" stop-color="#0AF" stop-opacity=".5"/><stop offset="1" stop-color="#0FF" stop-opacity="0"/></linearGradient><linearGradient id="b" x1="500.487" x2=".487" y1="20.612" y2="20.612" gradientUnits="userSpaceOnUse"><stop stop-color="#F70" stop-opacity=".6"/><stop offset=".948" stop-color="#F70" stop-opacity="0"/></linearGradient><linearGradient id="c" x1="250.487" x2="250.487" y1="13.112" y2="28.112" gradientUnits="userSpaceOnUse"><stop stop-color="#FFC999" stop-opacity="0"/><stop offset=".5" stop-color="#FFC999"/><stop offset="1" stop-color="#FFC999" stop-opacity="0"/></linearGradient></defs></svg>
